

a = [1, 3, [4, [[1, 1, 1], 1, 3]], 2, 4, 5, 6, 7];



a.at(2)

a.choose

a.sum

[1, 2, 3].sum
[1, [1, 2], 3].sum

[1, [1, 2], 3].flop

[1, 2, 3, 4] * 100

[1, 2, 3, 4] * [10, 100]

[1, 2, 3, 4] * [10, 100]

a.sum
a.flop

a = [1, 2, 3];
a.put(0, 8);
a.put(0, a);

a.at(0) == a
a + 1

{ SinOsc.ar(991) * LFPulse.kr(0.3, 0, 0.1) * 0.1 }.play


/////////////////////














































